!!!COM: Music21
!!!OTL: Río de Anxo
!!!OMV: pezas_jotas_rio-de-anxo_rio-de-anxo-partitura.musicxml
**kern
*I"Bagpipes
*I'Bag
*clefG^2
*k[]
*M3/4
=1
!LO:TX:a:t=Prestissimo
*MM220
!LO:TX:a:t=[quarter]=220
4r
8cc^L
8ggJ
8cccL
8ggJ
=||
8eeL
8ccJ
8eeL
8ggJ
8cccL
8ggJ
=
8eeL
8ccJ
8eeL
8ggJ
8cccL
8ggJ
=
8eeL
8ccJ
8eeL
8ggJ
8bbL
8ffJ
=
8ddL
8bJ
8ddL
8ffJ
8bbL
8ffJ
=
8ddL
8bJ
8ddL
8ffJ
8bbL
8ffJ
!!linebreak:original
=
8ddL
8bJ
8ddL
8ffJ
8bbL
8ffJ
=
8ddL
8bJ
8ddL
8ffJ
8cccL
8ggJ
=
8eeL
8ccJ
8eeL
8ggJ
8cccL
8ggJ
=
8eeL
8ccJ
8eeL
8ggJ
8cccL
8ggJ
=
8eeL
8ccJ
8eeL
8ggJ
8cccL
8ggJ
=
8eeL
8ccJ
8eeL
8ggJ
8bbL
8ffJ
!!linebreak:original
=
8ddL
8bJ
8ddL
8ffJ
8bbL
8ffJ
=
8ddL
8bJ
8ddL
8ffJ
8bbL
8ffJ
=
8ddL
8bJ
8ddL
8ffJ
8bbL
8ffJ
=
8ddL
8bJ
8ddL
8ffJ
8eeL
8ddJ
=
[2.cc
=
4cc]
8ccL
8ggJ
8cccL
8ggJ
=||
8eeL
8ccJ
8eeL
8ggJ
8cccL
8ggJ
!!linebreak:original
=
8eeL
8ccJ
8eeL
8ggJ
8cccL
8ggJ
=
8eeL
8ccJ
8eeL
8ggJ
8bbL
8ffJ
=
8ddL
8bJ
8ddL
8ffJ
8bbL
8ffJ
=
8ddL
8bJ
8ddL
8ffJ
8bbL
8ffJ
!!linebreak:original
=
8ddL
8bJ
8ddL
8ffJ
8bbL
8ffJ
=
8ddL
8bJ
8ddL
8ffJ
8cccL
8ggJ
=
8eeL
8ccJ
8eeL
8ggJ
8cccL
8ggJ
=
8eeL
8ccJ
8eeL
8ggJ
8cccL
8ggJ
=
8eeL
8ccJ
8eeL
8ggJ
8cccL
8ggJ
=
8eeL
8ccJ
8eeL
8ggJ
8bbL
8ffJ
!!linebreak:original
=
8ddL
8bJ
8ddL
8ffJ
8bbL
8ffJ
=
8ddL
8bJ
8ddL
8ffJ
8bbL
8ffJ
=
8ddL
8bJ
8ddL
8ffJ
8bbL
8ffJ
=
8ddL
8bJ
8ddL
8ffJ
8eeL
8ddJ
=
[2.cc
!!linebreak:original
=
4cc]
12ccL
12dd
12eeJ
16ffLL
16gg
16aa
16bbJJ
=||
4ccc
12bbL
12ccc
12bbJ
12aaL
12bb
12aaJ
=
12ggL
12aa
12ggJ
12ccL
12dd
12eeJ
12ffL
12gg
12aaJ
=
12bbL
12ccc
12bbJ
12aaL
12bb
12aaJ
12ggL
12aa
12ggJ
!!linebreak:original
=
12ffL
12gg
12ffJ
12bL
12cc
12ddJ
16eeLL
16ff
16gg
16aaJJ
=
12bbL
12ccc
12bbJ
12aaL
12bb
12aaJ
12ggL
12aa
12ggJ
=
12ffL
12gg
12ffJ
12bL
12cc
12ddJ
12eeL
12ff
12ggJ
=
12aaL
12bb
12aaJ
12ggL
12aa
12ggJ
12ffL
12gg
12ffJ
!!linebreak:original
=
12ggL
12aa
12ggJ
12ccL
12dd
12eeJ
16ffLL
16gg
16aa
16bbJJ
=
4ccc
12bbL
12ccc
12bbJ
12aaL
12bb
12aaJ
=
12ggL
12aa
12ggJ
12ccL
12dd
12eeJ
12ffL
12gg
12aaJ
=
12bbL
12ccc
12bbJ
12aaL
12bb
12aaJ
12ggL
12aa
12ggJ
!!linebreak:original
=
12ffL
12gg
12ffJ
12bL
12cc
12ddJ
16eeLL
16ff
16gg
16aaJJ
=
12bbL
12ccc
12bbJ
12aaL
12bb
12aaJ
12ggL
12aa
12ggJ
=
12ffL
12gg
12ffJ
12eeL
12ff
12eeJ
12ddL
12ee
12ddJ
=
8ccL
8ddJ
8eeL
8ffJ
12ggL
12aa
12bbJ
=||
[2.ccc
=
2.ccc]
!!pagebreak:original
=||
4dd
4ee
4ff
=
4gg
4aa
4bb
=
4ccc
8bbL
8aaJ
[4gg
=
2.gg_
=
2.gg]
=
4ee
4ff
4gg
=
4aa
4bb
4gg
=
4ccc
8bbL
8aaJ
[4ff
=
2.ff_
=
2.ff]
=
4dd
4ee
4ff
=
4gg
4aa
4bb
!!linebreak:original
=
4ccc
8bbL
8aaJ
[4gg
=
2.gg_
=
2.gg]
=
4ee
4ff
4gg
=
4aa
4bb
4gg
=
4ccc
8bbL
8aaJ
4gg
=
4bb
4aa
4ccc
=
4bbm
8aaL
8ggJ
4ff
=
4aa
4gg
4bb
=
4aaM
8ggL
8ffJ
[4ee
=
2.ee_
!!pagebreak:original
=
2.ee]
=
4ee
4ff
4gg
=
4aa
4bb
4ff
=
4ccc
8bbL
8aaJ
4gg
=
4bb
4aa
4ccc
=
4bbm
8aaL
8ggJ
4ff
=
4aa
4gg
4bb
=
4aaM
8ggL
8ffJ
[4ee
=
2.ee_
=
4ee]
8ccL
8ggJ
8cccL
8ggJ
!!linebreak:original
=||
2ccc
4gg
=
8ccc
8r
2r
==
*-
